addons/godot-flexbox/assets/light/JustifyContentEndRowIcon.svg

<svg xmlns="http://www.w3.org/2000/svg" width="16" height="16" fill="none" data-wf-icon="JustifyContentEndRowIcon" viewBox="0 0 24 24"><path fill="#474747" d="M22.5 0H24v24h-1.5V0ZM13.5 6h-6v12h6V6ZM21 6h-6v12h6V6Z"/></svg>

<svg data-wf-icon="JustifyContentEndRowIcon" width="16" height="16" viewBox="0 0 24 24" fill="none" xmlns="http://www.w3.org/2000/svg"><path d="M22.5 0H24V24H22.5V0Z" fill="#474747"></path><path d="M13.5 6H7.5V18H13.5V6Z" fill="#474747"></path><path d="M21 6H15V18H21V6Z" fill="#474747"></path></svg>
